packages/icons/svg/Fill/volume-down.svg

<svg width="24" height="24" viewBox="0 0 24 24" fill="none" xmlns="http://www.w3.org/2000/svg">
<g id="Icon/Fill/volume-down">
<path id="Mask" fill-rule="evenodd" clip-rule="evenodd" d="M15.4342 3.1752C15.7402 2.9652 16.1372 2.9412 16.4662 3.1152C16.7942 3.2882 17.0002 3.6292 17.0002 4.0002V20.0002C17.0002 20.3712 16.7942 20.7122 16.4662 20.8852C16.3202 20.9622 16.1592 21.0002 16.0002 21.0002C15.8012 21.0002 15.6042 20.9412 15.4342 20.8252L9.02324 16.4282H4.00024C3.44724 16.4282 3.00024 15.9812 3.00024 15.4282V8.5712C3.00024 8.0182 3.44724 7.5712 4.00024 7.5712H9.02324L15.4342 3.1752ZM19.3732 8.221C19.8022 7.876 20.4332 7.943 20.7792 8.373C22.4152 10.407 22.4152 13.593 20.7792 15.627C20.5812 15.872 20.2912 16 19.9992 16C19.7792 16 19.5582 15.928 19.3732 15.779C18.9432 15.433 18.8742 14.804 19.2202 14.373C20.2562 13.087 20.2562 10.913 19.2202 9.627C18.8742 9.196 18.9432 8.567 19.3732 8.221Z" fill="#000000"/>
</g>
</svg>

<svg fill="none" height="24" viewBox="0 0 24 24" width="24" xmlns="http://www.w3.org/2000/svg"><path clip-rule="evenodd" d="m15.4343 3.17548c.306-.21.703-.234 1.032-.06.328.173.534.514.534.885v16.00002c0 .371-.206.712-.534.885-.146.077-.307.115-.466.115-.199 0-.396-.059-.566-.175l-6.41099-4.397h-5.023c-.553 0-1-.447-1-1v-6.85702c0-.553.447-1 1-1h5.023zm3.939 5.04589c.429-.345 1.06-.278 1.406.152 1.636 2.03403 1.636 5.22003 0 7.25403-.198.245-.488.373-.78.373-.22 0-.441-.072-.626-.221-.43-.346-.499-.975-.153-1.406 1.036-1.286 1.036-3.46 0-4.74603-.346-.431-.277-1.06.153-1.406z" fill="#6b7280" fill-rule="evenodd"/></svg>
